static/img/icons/socials/small-bitcointalk.svg

<?xml version="1.0" encoding="UTF-8"?>
<svg width="17px" height="22px" viewBox="0 0 37 46" version="1.1" xmlns="http://www.w3.org/2000/svg" xmlns:xlink="http://www.w3.org/1999/xlink">
    <!-- Generator: Sketch 49.1 (51147) - http://www.bohemiancoding.com/sketch -->
    <defs></defs>
    <g id="Page-1" stroke="none" stroke-width="1" fill="none" fill-rule="evenodd">
        <g id="Landing-page" transform="translate(-719.000000, -9807.000000)" fill="#8386A8">
            <g id="social-icons" transform="translate(513.000000, 9804.000000)">
                <g id="Page-1" transform="translate(206.000000, 3.000000)">
                    <path d="M27.6638503,29.6483161 C27.4942645,35.1429441 17.6296463,34.4600554 14.4548005,34.5384125 L14.4225201,24.7048143 C17.1108866,24.6378387 24.6895067,24.0035401 27.0196062,27.2726511 C27.4219746,27.8662391 27.6565758,28.5915895 27.6683968,29.4692767 C27.6683968,29.5296861 27.6683968,29.5900954 27.6638503,29.6483161 M14.555279,10.889887 L14.8503491,10.889887 C14.9130913,10.889887 14.9808347,10.889887 15.0481234,10.888136 C15.166788,10.8859473 15.2899991,10.8833208 15.4159381,10.8833208 C15.525055,10.8811321 15.6341719,10.8811321 15.745562,10.8789433 C15.8037576,10.8767546 15.8619533,10.8767546 15.9224222,10.8767546 C16.0201727,10.8741281 16.1201965,10.8741281 16.2224936,10.8741281 C16.3734385,10.8719393 16.5248382,10.8719393 16.6853309,10.8719393 C16.8526434,10.8719393 17.0249571,10.8719393 17.2013627,10.8741281 L17.329575,10.8767546 C17.4968875,10.8789433 17.6619267,10.8833208 17.8315125,10.889887 C17.9456305,10.8920758 18.0597486,10.896891 18.173412,10.9034573 C18.2316076,10.9034573 18.28753,10.9078348 18.3457257,10.9100235 C18.4293819,10.9148387 18.5130382,10.9192162 18.5971491,10.9240315 C18.7480941,10.9327865 18.8967658,10.9459189 19.0458921,10.9573004 C19.1040878,10.9594892 19.1618288,10.9660554 19.2200245,10.9708706 C19.2341187,10.9730594 19.2500316,10.9752481 19.2663991,10.9752481 C19.3691508,10.9840031 19.4709932,10.9953846 19.5760182,11.0063283 C19.8110741,11.03128 20.0429474,11.0601715 20.2780033,11.0982557 C20.3361989,11.1052597 20.3943946,11.1140146 20.4525902,11.1253961 C20.6153562,11.1499101 20.7758489,11.1792393 20.9336137,11.2125082 C20.9895361,11.2212632 21.0431852,11.2326447 21.0991076,11.2462149 C21.315068,11.2908653 21.5292099,11.3425197 21.7410784,11.4024914 C21.7919996,11.4164993 21.8456487,11.4322583 21.8965699,11.4475795 C22.1711807,11.5281254 22.4362437,11.619615 22.691759,11.7255503 C22.7290406,11.7408715 22.7617757,11.7544417 22.796784,11.7675742 C22.842704,11.7903372 22.8918066,11.8104736 22.9381812,11.8327988 C23.4314803,12.0564887 23.8779501,12.3340217 24.25213,12.6745906 C24.2848651,12.703482 24.3130536,12.7306225 24.3430607,12.7595139 C24.6153982,13.0195369 24.8454529,13.3172064 25.0291329,13.6551488 C25.0477737,13.6888555 25.0664145,13.7269397 25.0846007,13.7650238 C25.1082427,13.8074855 25.1291567,13.8521359 25.1500708,13.8972241 C25.1709849,13.9440633 25.1896257,13.9909024 25.2082664,14.0381793 C25.2269072,14.0850185 25.2432748,14.1322954 25.2591876,14.1791346 C25.2664621,14.1948936 25.270554,14.2128413 25.2755552,14.2264115 C25.3037437,14.3069574 25.3287496,14.3918807 25.3501184,14.4794305 C25.4315013,14.7906702 25.477876,15.1237974 25.4874237,15.4888802 C25.5665334,20.6499434 17.1690823,20.0747409 14.4670762,20.0318415 L14.4338865,10.888136 C14.4711681,10.889887 14.5129962,10.889887 14.555279,10.889887 M30.1662635,21.0999496 C33.0378553,19.7206018 34.7287119,17.2442545 34.2658746,13.3846198 C33.7657557,7.97929256 28.8291274,6.22829573 22.4571578,5.85664665 L22.5058057,0.172035439 L17.8224194,0.0871120923 L17.8988012,5.56773217 C16.633955,5.52745925 15.4086637,5.64871578 14.1438175,5.60581635 L14.2342936,0.0849233463 L9.55090726,0 L9.50225933,5.68461121 C8.44609912,5.76471932 7.34856544,5.68198472 6.46244565,5.72269539 L0.00454653557,5.71569141 L0,10.5519447 L3.41854009,10.5948441 C5.19259827,10.5160492 5.82320275,11.5727758 6.07689944,12.5472055 L6.11145311,20.9992672 L6.14146024,32.903857 C6.09963212,33.432658 5.63452153,34.4088387 4.36967533,34.3659393 L0.95113524,34.3239154 L0.0159128745,39.7261784 L6.13691371,39.8137282 C7.40221456,39.8535634 8.45792011,39.7734553 9.5554538,39.8561899 L9.54817934,45.7045193 L14.2320203,45.7894426 L14.2806682,40.1048314 C15.5041409,39.9835749 16.7712604,40.0238478 18.0361066,40.0667472 L17.9874587,45.7513584 L22.7149463,46 L22.7222208,40.1516706 C30.2012718,40.1516706 36.2704421,37.7650619 36.9101397,30.5330072 C37.5493826,24.6820513 34.7237107,22.0805078 30.1662635,21.0999496" id="Fill-1"></path>
                </g>
            </g>
        </g>
    </g>
</svg>

<svg width="17" height="22" viewBox="0 0 37 46" xmlns="http://www.w3.org/2000/svg"><path d="M27.664 29.648c-.17 5.495-10.034 4.812-13.21 4.89l-.031-9.833c2.688-.067 10.267-.701 12.597 2.568.402.593.637 1.319.648 2.196 0 .06 0 .121-.004.18m-13.109-18.76h.493a14.5 14.5 0 0 1 .368-.006l.33-.004c.058-.002.116-.002.176-.002.098-.003.198-.003.3-.003.151-.002.303-.002.463-.002.168 0 .34 0 .516.002l.129.003c.167.002.332.006.502.013.114.002.228.007.341.013.059 0 .115.005.173.007l.251.014c.151.009.3.022.449.033.058.002.116.01.174.014.014.002.03.004.046.004.103.009.205.02.31.031a12.833 12.833 0 0 1 .877.12c.162.024.323.053.48.087a9.181 9.181 0 0 1 .963.235c.275.08.54.172.796.278l.105.042c.046.022.095.042.141.065.493.223.94.501 1.314.842.033.028.061.056.091.085a3.625 3.625 0 0 1 .865 1.278c.019.047.035.094.051.141.007.016.012.034.017.047a4.42 4.42 0 0 1 .212 1.262c.079 5.162-8.319 4.587-11.02 4.544l-.034-9.144c.037.002.079.002.121.002M30.166 21.1c2.872-1.38 4.563-3.856 4.1-7.715-.5-5.406-5.437-7.157-11.809-7.528l.049-5.685-4.684-.085.077 5.48c-1.265-.04-2.49.082-3.755.039l.09-5.521L9.551 0l-.049 5.685c-1.056.08-2.153-.003-3.04.038L.005 5.716 0 10.552l3.419.043c1.774-.079 2.404.978 2.658 1.952L6.11 21l.03 11.905c-.041.529-.506 1.505-1.771 1.462L.95 34.324l-.935 5.402 6.12.088c1.266.04 2.322-.04 3.42.042l-.008 5.849 4.684.084.049-5.684c1.223-.121 2.49-.081 3.755-.038l-.049 5.684 4.728.249.007-5.848c7.48 0 13.548-2.387 14.188-9.619.64-5.85-2.186-8.452-6.744-9.433" fill="#8386A8" fill-rule="evenodd"/></svg>
